X: 1190
T: The Bantry Lasses
M:C|
L:1/8
R:Reel
B:O'Neill's 1190
N:Collected by F. O'Neill
Z:Transcribed by Trish O'Neil
K:G
d2(BG) GBdB | Tc2(Bc) ABcA | BcBA GBdg | fdcA (BG) Gz :|
dggf gbag | fgab c'abg | dggf (gb)ag | (fd)cA (BG) Gz |
dggf gbag | fgab c'2(d'c') | bd'bg (ab)ag | (fd)cA (BG) Gz |]


